Newaita-dark/apps/48/sublime-text.svg

<svg height="48" viewBox="0 0 48 48" width="48" xmlns="http://www.w3.org/2000/svg" xmlns:xlink="http://www.w3.org/1999/xlink"><linearGradient id="a" gradientTransform="matrix(.0772133 0 0 .093759 2.539069 20.158178)" gradientUnits="userSpaceOnUse" x1="254" x2="254" y1="233.5" y2="254.666672"><stop offset="0" stop-opacity=".27451"/><stop offset="1" stop-opacity="0"/></linearGradient><linearGradient id="b"><stop offset="0" stop-opacity=".313726"/><stop offset=".222222" stop-opacity=".27451"/><stop offset="1" stop-opacity="0"/></linearGradient><radialGradient id="c" cx="450.908936" cy="189.579361" gradientTransform="matrix(.00000022 -.117199 -.17373 -.00000015 43.646305 95.392999)" gradientUnits="userSpaceOnUse" r="21.166656" xlink:href="#b"/><radialGradient id="d" cx="450.908936" cy="189.579361" gradientTransform="matrix(-.00000022 .117199 .17373 .00000015 -21.816104 -11.291218)" gradientUnits="userSpaceOnUse" r="21.166656" xlink:href="#b"/><radialGradient id="e" cx="450.908936" cy="189.579361" gradientTransform="matrix(-.00000022 -.117199 .17373 -.00000015 -21.816104 95.392999)" gradientUnits="userSpaceOnUse" r="21.166656" xlink:href="#b"/><radialGradient id="f" cx="450.908936" cy="189.579361" gradientTransform="matrix(.00000022 .117199 -.17373 .00000015 43.646303 -11.291219)" gradientUnits="userSpaceOnUse" r="21.166656" xlink:href="#b"/><linearGradient id="g" gradientUnits="userSpaceOnUse" x1="23.814868" x2="23.814868" y1="41.73340838112" y2="4.31010741095"><stop offset="0" stop-color="#ffa726"/><stop offset="1" stop-color="#ffb74d"/></linearGradient><path d="m10.710938 42.050781h.410156v1.984375h-.410156zm0 0" fill="url(#a)"/><path d="m11.121094 42.050781h3.265625v-1.984375h-3.265625zm0 0" fill="url(#c)"/><path d="m10.710938 42.050781h-3.269532v1.984375h3.269532zm0 0" fill="url(#d)"/><path d="m10.710938 42.050781h-3.269532v-1.984375h3.269532zm0 0" fill="url(#e)"/><path d="m11.121094 42.050781h3.265625v1.984375h-3.265625zm0 0" fill="url(#f)"/><path d="m37.261719 4.304688c-.363281-.007813-.863281.101562-1.539063.289062l-23.816406 7.9375c-2.617188 1.183594-2.546875 3.84375-2.550781 5.570312 0 3.402344-.210938 4.539063 2.550781 5.386719l14.695312 4.898438-14.695312 4.898437v.015625c-2.976562 1.132813-2.550781 1.984375-2.550781 5.386719 0 3.398438 0 3.824219 2.550781 3.117188l23.816406-7.9375c2.765625-.851563 2.550782-1.984376 2.550782-5.386719 0-3.332031 0-4.863281-2.550782-5.585938-4.867187-1.59375-9.804687-3.253906-14.695312-4.882812l14.695312-4.898438v-.015625c2.976563-1.132812 2.550782-1.984375 2.550782-5.386718 0-2.496094 0-3.390626-1.011719-3.40625zm0 0" fill="url(#g)"/><path d="m37.261719 4.304688c-.363281-.007813-.863281.101562-1.539063.289062l-23.816406 7.9375c-2.617188 1.183594-2.546875 3.84375-2.550781 5.570312 0 .589844-.003907 1.109376-.003907 1.570313.003907-.246094.003907-.503906.003907-.785156.003906-1.726563-.066407-4.386719 2.550781-5.570313l23.816406-7.9375c.675782-.1875 1.175782-.296875 1.539063-.289062 1.011719.015625 1.011719.910156 1.011719 3.40625 0 .5625.011718 1.046875.015624 1.480468.015626-.605468-.015624-1.339843-.015624-2.265624 0-2.496094 0-3.390626-1.011719-3.40625zm-15.054688 14.097656-1.175781.394531c4.886719 1.628906 9.824219 3.289063 14.691406 4.882813 2.550782.722656 2.550782 2.253906 2.550782 5.585937 0 .277344 0 .535156.003906.785156.003906-.464843-.003906-.984375-.003906-1.570312 0-3.332031 0-4.863281-2.550782-5.585938-4.476562-1.464843-9.011718-2.988281-13.515625-4.492187zm3.214844 10.378906-13.515625 4.503906v.015625c-2.484375.945313-2.597656 1.699219-2.566406 3.90625.035156-1.621093.398437-2.296875 2.566406-3.125v-.011719l14.695312-4.898437zm0 0" fill="#fff" fill-opacity=".392157"/><path d="m38.292969 9.257812c-.03125 1.652344-.382813 2.332032-2.570313 3.167969v.011719l-14.691406 4.898438c.335938.113281.671875.226562 1.007812.335937l13.683594-4.558594v-.015625c2.460938-.9375 2.597656-1.6875 2.570313-3.839844zm-28.941407 9.707032c-.007812 2.738281.042969 3.75 2.554688 4.523437l13.683594 4.5625 1.011718-.339843-14.695312-4.894532c-2.296875-.707031-2.539062-1.613281-2.554688-3.851562zm28.925782 10.375c-.015625 2.238281-.257813 3.144531-2.554688 3.851562l-23.816406 7.9375c-2.550781.710938-2.550781.285156-2.550781-3.117187 0-.589844-.011719-1.09375-.019531-1.542969-.007813.59375.019531 1.316406.019531 2.21875 0 3.398438 0 3.824219 2.550781 3.117188l23.816406-7.9375c2.515625-.773438 2.566406-1.789063 2.554688-4.527344zm0 0" fill-opacity=".235294"/><path d="m37.265625 4.164062c-.394531-.007812-.898437.105469-1.582031.292969l-.003906.003907-23.824219 7.941406h-.007813c-1.34375.609375-2.011718 1.613281-2.332031 2.671875-.320313 1.054687-.300781 2.167969-.300781 3.027343 0 1.699219-.058594 2.839844.246094 3.699219.15625.429688.410156.785157.796874 1.078125.386719.292969.90625.527344 1.605469.742188v.003906h.003907l14.289062 4.761719-14.390625 4.796875v.023437c-.695313.269531-1.21875.53125-1.597656.820313-.398438.308594-.644531.65625-.785157 1.070312-.28125.828125-.167968 1.894532-.167968 3.589844 0 .847656 0 1.515625.039062 2.03125.042969.515625.121094.890625.308594 1.148438.1875.261718.488281.375.871094.367187.386718-.007813.871094-.117187 1.511718-.292969l.003907-.003906 23.8125-7.9375h.003906c.699219-.214844 1.21875-.449219 1.605469-.742188.390625-.296874.640625-.652343.796875-1.082031.308593-.859375.246093-2 .246093-3.695312 0-1.667969.003907-2.890625-.328124-3.820313-.332032-.925781-1.023438-1.53125-2.324219-1.902344l.003906.003907c-4.730469-1.550781-9.535156-3.164063-14.289063-4.75l14.386719-4.796875v-.023438c.695313-.273437 1.222657-.53125 1.597657-.824218.398437-.304688.644531-.652344.785156-1.066407.285156-.828125.167968-1.894531.167968-3.589843 0-1.246094.003907-2.097657-.128906-2.664063-.066406-.285156-.171875-.507813-.34375-.660156-.171875-.152344-.402344-.21875-.675781-.222657zm-.003906.28125c.230469.003907.378906.054688.492187.152344.113282.097656.195313.257813.257813.511719.117187.503906.121093 1.355469.121093 2.601563 0 1.707031.097657 2.769531-.152343 3.5-.125.367187-.328125.65625-.691407.933593-.359374.28125-.878906.542969-1.617187.824219l-.089844.03125v.011719l-14.996093 5 .398437.132812c4.886719 1.628907 9.828125 3.289063 14.695313 4.882813l.003906.003906c1.25.351562 1.832031.875 2.140625 1.726562.304687.847657.308593 2.054688.308593 3.722657 0 1.703125.046876 2.832031-.230468 3.601562-.136719.386719-.351563.683594-.699219.949219-.351563.265625-.839844.492188-1.523437.699219l-23.8125 7.9375c-.632813.175781-1.105469.28125-1.4375.285156-.332032.007813-.507813-.066406-.640626-.25-.132812-.179687-.214843-.507813-.253906-1.007813-.039062-.496093-.039062-1.160156-.039062-2.007812 0-1.707031-.097656-2.769531.152344-3.5.125-.367188.328124-.65625.691406-.9375.359375-.277344.878906-.539062 1.617187-.820312l.089844-.035157v-.007812l15-5-15.097656-5.03125c-.683594-.210938-1.171875-.4375-1.523438-.699219-.347656-.265625-.558593-.566406-.699219-.949219-.277343-.773437-.230468-1.898437-.230468-3.605469 0-.863281-.011719-1.945312.289062-2.945312.300782-1 .90625-1.917969 2.175782-2.492188l23.800781-7.933593c.671875-.1875 1.164062-.292969 1.5-.285157zm0 0" fill="#263238"/></svg>

<?xml version="1.0" encoding="UTF-8"?>
<svg xmlns="http://www.w3.org/2000/svg" xmlns:xlink="http://www.w3.org/1999/xlink" width="48pt" height="48pt" viewBox="0 0 48 48" version="1.1">
<defs>
<linearGradient id="linear0" gradientUnits="userSpaceOnUse" x1="254" y1="233.5" x2="254" y2="254.666672" gradientTransform="matrix(0.0772133,0,0,0.093759,2.539069,20.158178)">
<stop offset="0" style="stop-color:rgb(0%,0%,0%);stop-opacity:0.27451;"/>
<stop offset="1" style="stop-color:rgb(0%,0%,0%);stop-opacity:0;"/>
</linearGradient>
<radialGradient id="radial0" gradientUnits="userSpaceOnUse" cx="450.908936" cy="189.579361" fx="450.908936" fy="189.579361" r="21.166656" gradientTransform="matrix(0.000000215152,-0.117199,-0.17373,-0.000000152308,43.646305,95.392999)">
<stop offset="0" style="stop-color:rgb(0%,0%,0%);stop-opacity:0.313726;"/>
<stop offset="0.222222" style="stop-color:rgb(0%,0%,0%);stop-opacity:0.27451;"/>
<stop offset="1" style="stop-color:rgb(0%,0%,0%);stop-opacity:0;"/>
</radialGradient>
<radialGradient id="radial1" gradientUnits="userSpaceOnUse" cx="450.908936" cy="189.579361" fx="450.908936" fy="189.579361" r="21.166656" gradientTransform="matrix(-0.000000215152,0.117199,0.17373,0.000000152308,-21.816104,-11.291218)">
<stop offset="0" style="stop-color:rgb(0%,0%,0%);stop-opacity:0.313726;"/>
<stop offset="0.222222" style="stop-color:rgb(0%,0%,0%);stop-opacity:0.27451;"/>
<stop offset="1" style="stop-color:rgb(0%,0%,0%);stop-opacity:0;"/>
</radialGradient>
<radialGradient id="radial2" gradientUnits="userSpaceOnUse" cx="450.908936" cy="189.579361" fx="450.908936" fy="189.579361" r="21.166656" gradientTransform="matrix(-0.000000215152,-0.117199,0.17373,-0.000000152308,-21.816104,95.392999)">
<stop offset="0" style="stop-color:rgb(0%,0%,0%);stop-opacity:0.313726;"/>
<stop offset="0.222222" style="stop-color:rgb(0%,0%,0%);stop-opacity:0.27451;"/>
<stop offset="1" style="stop-color:rgb(0%,0%,0%);stop-opacity:0;"/>
</radialGradient>
<radialGradient id="radial3" gradientUnits="userSpaceOnUse" cx="450.908936" cy="189.579361" fx="450.908936" fy="189.579361" r="21.166656" gradientTransform="matrix(0.000000215152,0.117199,-0.17373,0.000000152308,43.646303,-11.291219)">
<stop offset="0" style="stop-color:rgb(0%,0%,0%);stop-opacity:0.313726;"/>
<stop offset="0.222222" style="stop-color:rgb(0%,0%,0%);stop-opacity:0.27451;"/>
<stop offset="1" style="stop-color:rgb(0%,0%,0%);stop-opacity:0;"/>
</radialGradient>
<linearGradient id="linear1" gradientUnits="userSpaceOnUse" x1="254" y1="148.833344" x2="254" y2="-83.999985" gradientTransform="matrix(0.16073,0,0,0.16073,-17.010552,17.811425)">
<stop offset="0" style="stop-color:rgb(100%,65.490198%,14.901961%);stop-opacity:1;"/>
<stop offset="1" style="stop-color:rgb(100%,71.764708%,30.19608%);stop-opacity:1;"/>
</linearGradient>
</defs>
<g id="surface1">
<path style=" stroke:none;fill-rule:nonzero;fill:url(#linear0);" d="M 10.710938 42.050781 L 11.121094 42.050781 L 11.121094 44.035156 L 10.710938 44.035156 Z M 10.710938 42.050781 "/>
<path style=" stroke:none;fill-rule:nonzero;fill:url(#radial0);" d="M 11.121094 42.050781 L 14.386719 42.050781 L 14.386719 40.066406 L 11.121094 40.066406 Z M 11.121094 42.050781 "/>
<path style=" stroke:none;fill-rule:nonzero;fill:url(#radial1);" d="M 10.710938 42.050781 L 7.441406 42.050781 L 7.441406 44.035156 L 10.710938 44.035156 Z M 10.710938 42.050781 "/>
<path style=" stroke:none;fill-rule:nonzero;fill:url(#radial2);" d="M 10.710938 42.050781 L 7.441406 42.050781 L 7.441406 40.066406 L 10.710938 40.066406 Z M 10.710938 42.050781 "/>
<path style=" stroke:none;fill-rule:nonzero;fill:url(#radial3);" d="M 11.121094 42.050781 L 14.386719 42.050781 L 14.386719 44.035156 L 11.121094 44.035156 Z M 11.121094 42.050781 "/>
<path style=" stroke:none;fill-rule:nonzero;fill:rgb(100%,100%,100%);fill-opacity:0.392157;" d="M 5.457031 4.34375 C 4.632812 4.34375 3.96875 5.007812 3.96875 5.832031 L 3.96875 6.082031 C 3.96875 5.257812 4.632812 4.59375 5.457031 4.59375 L 42.171875 4.59375 C 42.996094 4.59375 43.660156 5.257812 43.660156 6.082031 L 43.660156 5.832031 C 43.660156 5.007812 42.996094 4.34375 42.171875 4.34375 Z M 5.457031 4.34375 "/>
<path style=" stroke:none;fill-rule:nonzero;fill:url(#linear1);" d="M 37.261719 4.304688 C 36.898438 4.296875 36.398438 4.40625 35.722656 4.59375 L 11.90625 12.53125 C 9.289062 13.714844 9.359375 16.375 9.355469 18.101562 C 9.355469 21.503906 9.144531 22.640625 11.90625 23.488281 L 26.601562 28.386719 L 11.90625 33.285156 L 11.90625 33.300781 C 8.929688 34.433594 9.355469 35.285156 9.355469 38.6875 C 9.355469 42.085938 9.355469 42.511719 11.90625 41.804688 L 35.722656 33.867188 C 38.488281 33.015625 38.273438 31.882812 38.273438 28.480469 C 38.273438 25.148438 38.273438 23.617188 35.722656 22.894531 C 30.855469 21.300781 25.917969 19.640625 21.027344 18.011719 L 35.722656 13.113281 L 35.722656 13.097656 C 38.699219 11.964844 38.273438 11.113281 38.273438 7.710938 C 38.273438 5.214844 38.273438 4.320312 37.261719 4.304688 Z M 37.261719 4.304688 "/>
<path style=" stroke:none;fill-rule:nonzero;fill:rgb(100%,100%,100%);fill-opacity:0.392157;" d="M 37.261719 4.304688 C 36.898438 4.296875 36.398438 4.40625 35.722656 4.59375 L 11.90625 12.53125 C 9.289062 13.714844 9.359375 16.375 9.355469 18.101562 C 9.355469 18.691406 9.351562 19.210938 9.351562 19.671875 C 9.355469 19.425781 9.355469 19.167969 9.355469 18.886719 C 9.359375 17.160156 9.289062 14.5 11.90625 13.316406 L 35.722656 5.378906 C 36.398438 5.191406 36.898438 5.082031 37.261719 5.089844 C 38.273438 5.105469 38.273438 6 38.273438 8.496094 C 38.273438 9.058594 38.285156 9.542969 38.289062 9.976562 C 38.304688 9.371094 38.273438 8.636719 38.273438 7.710938 C 38.273438 5.214844 38.273438 4.320312 37.261719 4.304688 Z M 22.207031 18.402344 L 21.03125 18.796875 C 25.917969 20.425781 30.855469 22.085938 35.722656 23.679688 C 38.273438 24.402344 38.273438 25.933594 38.273438 29.265625 C 38.273438 29.542969 38.273438 29.800781 38.277344 30.050781 C 38.28125 29.585938 38.273438 29.066406 38.273438 28.480469 C 38.273438 25.148438 38.273438 23.617188 35.722656 22.894531 C 31.246094 21.429688 26.710938 19.90625 22.207031 18.402344 Z M 25.421875 28.78125 L 11.90625 33.285156 L 11.90625 33.300781 C 9.421875 34.246094 9.308594 35 9.339844 37.207031 C 9.375 35.585938 9.738281 34.910156 11.90625 34.082031 L 11.90625 34.070312 L 26.601562 29.171875 Z M 25.421875 28.78125 "/>
<path style=" stroke:none;fill-rule:nonzero;fill:rgb(0%,0%,0%);fill-opacity:0.235294;" d="M 38.292969 9.257812 C 38.261719 10.910156 37.910156 11.589844 35.722656 12.425781 L 35.722656 12.4375 L 21.03125 17.335938 C 21.367188 17.449219 21.703125 17.5625 22.039062 17.671875 L 35.722656 13.113281 L 35.722656 13.097656 C 38.183594 12.160156 38.320312 11.410156 38.292969 9.257812 Z M 9.351562 18.964844 C 9.34375 21.703125 9.394531 22.714844 11.90625 23.488281 L 25.589844 28.050781 L 26.601562 27.710938 L 11.90625 22.816406 C 9.609375 22.109375 9.367188 21.203125 9.351562 18.964844 Z M 38.277344 29.339844 C 38.261719 31.578125 38.019531 32.484375 35.722656 33.191406 L 11.90625 41.128906 C 9.355469 41.839844 9.355469 41.414062 9.355469 38.011719 C 9.355469 37.421875 9.34375 36.917969 9.335938 36.46875 C 9.328125 37.0625 9.355469 37.785156 9.355469 38.6875 C 9.355469 42.085938 9.355469 42.511719 11.90625 41.804688 L 35.722656 33.867188 C 38.238281 33.09375 38.289062 32.078125 38.277344 29.339844 Z M 38.277344 29.339844 "/>
<path style=" stroke:none;fill-rule:nonzero;fill:rgb(14.901961%,19.607843%,21.960784%);fill-opacity:1;" d="M 37.265625 4.164062 C 36.871094 4.15625 36.367188 4.269531 35.683594 4.457031 L 35.679688 4.460938 L 11.855469 12.402344 L 11.847656 12.402344 C 10.503906 13.011719 9.835938 14.015625 9.515625 15.074219 C 9.195312 16.128906 9.214844 17.242188 9.214844 18.101562 C 9.214844 19.800781 9.15625 20.941406 9.460938 21.800781 C 9.617188 22.230469 9.871094 22.585938 10.257812 22.878906 C 10.644531 23.171875 11.164062 23.40625 11.863281 23.621094 L 11.863281 23.625 C 11.863281 23.625 11.867188 23.625 11.867188 23.625 L 26.15625 28.386719 L 11.765625 33.183594 L 11.765625 33.207031 C 11.070312 33.476562 10.546875 33.738281 10.167969 34.027344 C 9.769531 34.335938 9.523438 34.683594 9.382812 35.097656 C 9.101562 35.925781 9.214844 36.992188 9.214844 38.6875 C 9.214844 39.535156 9.214844 40.203125 9.253906 40.71875 C 9.296875 41.234375 9.375 41.609375 9.5625 41.867188 C 9.75 42.128906 10.050781 42.242188 10.433594 42.234375 C 10.820312 42.226562 11.304688 42.117188 11.945312 41.941406 L 11.949219 41.9375 L 35.761719 34 L 35.765625 34 C 36.464844 33.785156 36.984375 33.550781 37.371094 33.257812 C 37.761719 32.960938 38.011719 32.605469 38.167969 32.175781 C 38.476562 31.316406 38.414062 30.175781 38.414062 28.480469 C 38.414062 26.8125 38.417969 25.589844 38.085938 24.660156 C 37.753906 23.734375 37.0625 23.128906 35.761719 22.757812 L 35.765625 22.761719 C 31.035156 21.210938 26.230469 19.597656 21.476562 18.011719 L 35.863281 13.214844 L 35.863281 13.191406 C 36.558594 12.917969 37.085938 12.660156 37.460938 12.367188 C 37.859375 12.0625 38.105469 11.714844 38.246094 11.300781 C 38.53125 10.472656 38.414062 9.40625 38.414062 7.710938 C 38.414062 6.464844 38.417969 5.613281 38.285156 5.046875 C 38.21875 4.761719 38.113281 4.539062 37.941406 4.386719 C 37.769531 4.234375 37.539062 4.167969 37.265625 4.164062 Z M 37.261719 4.445312 C 37.492188 4.449219 37.640625 4.5 37.753906 4.597656 C 37.867188 4.695312 37.949219 4.855469 38.011719 5.109375 C 38.128906 5.613281 38.132812 6.464844 38.132812 7.710938 C 38.132812 9.417969 38.230469 10.480469 37.980469 11.210938 C 37.855469 11.578125 37.652344 11.867188 37.289062 12.144531 C 36.929688 12.425781 36.410156 12.6875 35.671875 12.96875 L 35.582031 13 L 35.582031 13.011719 L 20.585938 18.011719 L 20.984375 18.144531 C 25.871094 19.773438 30.8125 21.433594 35.679688 23.027344 L 35.683594 23.03125 C 36.933594 23.382812 37.515625 23.90625 37.824219 24.757812 C 38.128906 25.605469 38.132812 26.8125 38.132812 28.480469 C 38.132812 30.183594 38.179688 31.3125 37.902344 32.082031 C 37.765625 32.46875 37.550781 32.765625 37.203125 33.03125 C 36.851562 33.296875 36.363281 33.523438 35.679688 33.730469 L 11.867188 41.667969 C 11.234375 41.84375 10.761719 41.949219 10.429688 41.953125 C 10.097656 41.960938 9.921875 41.886719 9.789062 41.703125 C 9.65625 41.523438 9.574219 41.195312 9.535156 40.695312 C 9.496094 40.199219 9.496094 39.535156 9.496094 38.6875 C 9.496094 36.980469 9.398438 35.917969 9.648438 35.1875 C 9.773438 34.820312 9.976562 34.53125 10.339844 34.25 C 10.699219 33.972656 11.21875 33.710938 11.957031 33.429688 L 12.046875 33.394531 L 12.046875 33.386719 L 27.046875 28.386719 L 11.949219 23.355469 C 11.265625 23.144531 10.777344 22.917969 10.425781 22.65625 C 10.078125 22.390625 9.867188 22.089844 9.726562 21.707031 C 9.449219 20.933594 9.496094 19.808594 9.496094 18.101562 C 9.496094 17.238281 9.484375 16.15625 9.785156 15.15625 C 10.085938 14.15625 10.691406 13.238281 11.960938 12.664062 L 35.761719 4.730469 C 36.433594 4.542969 36.925781 4.4375 37.261719 4.445312 Z M 37.261719 4.445312 "/>
</g>
</svg>
